X:1
T:050 - A Velha História
T:Letra: Katherine Hankey (1834-1911)
T:Trad.: Sarah Poulton Kalley (1825-1907)
T:Música: William Howard Doane (1832-1915)
L:1/4
Q:1/4=115
M:4/4
K:C
V:1
"C"EE3/4F/4 GG | "F"A2 "C"GG | "Am"ccc "D"E/>^F/ | "C/G"G2- "G"G "G7"G | "C"ccc/B/ A/G/ |("F"A"(G)"B)"(F)"HcA | "C/G"GF/E/ "G"D "G7"G/F/ | "C"E3z | "G"D3//C// D3/4E/4 "G7"FF | "C"E3//F// G2 G | "D7"^F/G/ A/B/ cF | "G"G3 "G7"G | "C"ccc/B/ A/G/ |("F"A"(G)"B)"(F)"HcA | "C/G"GF/E/ "G"D "G7"G/F/ | "C"E4 || "C"EE3/4F/4 GG | "F"A2 "C"Gz | "G7"BB3/4c/4 dd | "G7"d2 "C"cz | ee3/4d/4 c "C7"c | "F"c2 AA | "C/G"Gc "G"B/c/ "G7"Hd | "C"c3z |]
w: 1.~Con-tai-mea ve-lhahis-tó-ria Do gran-de Sal-va_dor;_ De Cris-toe su_a_ gló_ria, De Cris-toe_ seu a_mor. Com cal-mae com pa-ci-ên_cia, Pois que_ro_ pe-ne-trar Àal-tu-ra do_ mis_té_rio: Que Deus nos_ po-dea_mar.     Con-tai-mea ve-lhahis-tó-ria,    Con-tai-mea ve-lhahis-tó-ria,    Con-tai-mea ve-lhahis-tó-ria              De Cris-toe seu_ a-mor.  
w: 2.~Fa-lai-me com do-çu-ra Doa-man-te Re-den_tor;_ Fa-lai com sen_ti_men_to, Pois sou um_ pe-ca_dor! Que_ren-do con-so-lar_me Em tem_pos_ dea-fli-ção, Sem-prees-sa ve_lha his-tó_ria Di-zei do_ co-ra_ção.  
w: 3.~Seo bri-lho des-te mun-do Tol-dar do céu a_ luz,_ Nar-rai a mes_ma his-tó_ria Da gra-ça_ de Je_sus! E_ quan-do,en-fim, a gló_ria Do mun_doa_lém rai-ar, Con-tai-mea ve_lha his-tó_ria, Que vei-oa_qui sal_var.
W: 
W:
W: 1. Contai-me a velha história
W: Do grande Salvador;
W: De Cristo e sua glória,
W: De Cristo e seu amor.
W: Com calma e com paciência,
W: Pois quero penetrar
W: À altura do ministério:
W: Que Deus nos pode amar.
W: 
W:    (Estribilho)
W:    Contai-me a velha história,
W:    Contai-me a velha história,
W:    Contai-me a velha história          
W:    De Cristo e seu amor.
W: 
W:
W:
W: 2. Falai-me com doçura
W: Do amante Redentor;
W: Falai com sentimento,
W: Pois sou um pecador!
W: Querendo consolar-me
W: Em tempos de aflição,
W: Sempre essa velha história
W: Dizei do coração.
W: 
W: 3. Se o brilho deste mundo
W: Toldar do céu a luz,
W: Narrai a mesma história
W: Da graça de Jesus!
W: E quando, enfim, a glória
W: Do mundo além raiar,
W: Contai-me a velha história,
W: Que veio aqui salvar.
W: 
W: 





